X:1
T:Anchored at Last
T:Anchored at Last
T:Lelia Naylor Morris
T:Lelia Naylor Morris, 1905
T:Public Domain Courtesy of the Cyber Hymnal™
T:Public Domain Courtesy of the Cyber Hymnal™
C:Lelia Naylor Morris
Z:Public Domain
Z:Courtesy of the Cyber Hymnal™
%%score ( 1 2 ) ( 3 4 )
L:1/8
Q:1/4=105
M:6/4
K:Eb
V:1 treble 
V:2 treble 
V:3 bass 
V:4 bass 
V:1
 GG | G2 E2 G2 F4 FF | F2 B,2 F2 E4 EE | E2 A2 c2 e2 d2 c2 | B6- B4 BB | B2 G2 B2 A4 AA | %6
w: 1.~O so|long was my bark tossed a-|bout on life’s sea, But I’ve|an- chored in Je- sus at|last; * And I|heard a sweet voice gent- ly|
w: 2.~Safe- ly|moored to the Rock which no|tem- pest can shake, I have|an- chored in Je- sus at|last; * Tho’ the|bil- lows in fu- ry a-|
w: 3.~In the|har- bor of faith there is|safe- ty and rest, I have|an- chored in Je- sus at|last; * And a|deep set- tled peace now is|
w: 4.~Deep- er|grow- eth my peace as I’m|near- ing the shore, I have|an- chored in Je- sus at|last; * And by|simp- ly be- liev- ing I’m|
 A2 F2 A2 G4 EE | F2 G2 A2 G2 G2 F2 | E6- E4 ||"^Refrain" [GB]2 | e6- e4 [Ge]2 | %11
w: call- ing to me, And I’ve|an- chored in Je- sus at|last. *|||
w: round me may break, I have|an- chored in Je- sus at|last. *|At|last! * at|
w: fill- ing my breast; I have|an- chored in Je- sus at|last. *|||
w: safe ev- er- more, I have|an- chored in Je- sus at|last. *|||
 e6- [Ae]4 [Ae][Ae] | [Ae]2 [Bd]2 [Ac]2 [GB]2 [EG]2 E2 | G2 F2 E2 [DB]4 [DB][DB] | %14
w: |||
w: last! All my doubt-|* ings are o- ver, my|strug- gling is past, And the|
w: |||
w: |||
 [EB]2 [E=A]2 [EB]2 [EG]4 [_DE][DE] | [EA]2 [EB]2 [Ec]2 [EB]4 [Ge][Ge] | %16
w: ||
w: load of my sin at His|feet I have cast, I have|
w: ||
w: ||
 [Ge]2 [GB]2 [EG]2 [DB] [DA]3 [B,D]2 | E6- [B,E]4 |] %18
w: ||
w: an- chored in Je- sus at|last. *|
w: ||
w: ||
V:2
 x2 | x12 | x12 | x12 | x12 | x12 | x12 | x12 | x10 || x2 | (G3 G G2 G2 E2) x2 | A2 A2 A2 x6 | %12
 x10 E2 | G2 F2 E2 x6 | x12 | x12 | x12 | B,4 C2 x4 |] %18
V:3
 B,B, | B,2 G,2 B,2 [D,A,]4 A,A, | A,2 [F,A,]2 [B,,A,]2 [E,G,]4 _DD | C2 C2 A,2 C2 B,2 A,2 | %4
w: ~ ~|~ ~ ~ ~ ~ ~|~ ~ ~ ~ ~ ~|~ ~ ~ ~ ~ ~|
 G,6- [E,G,]4 G,G, | G,2 B,2 G,2 F,4 F,F, | F,2 A,2 C2 B,4 G,G, | %7
w: ~ ~ ~ ~|* ~ ~ ~ ~ ~|~ ~ ~ ~ ~ ~|
 [A,,G,]2 G,2 [F,,F,]2 B,2 B,2 A,2 | G,6- [E,,G,]4 || [E,E]2 | %10
w: ~ ~ ~ ~ ~ ~|~ I’ve||
 [E,B,]3 [E,B,] [E,B,]2 [E,B,]2 [E,G,]2 [E,B,]2 | [A,C]2 [A,C]2 [A,C]2 [A,C]4 [A,C][A,C] | %12
w: an- chored in Je- sus, I’ve|an- chored at last, * *|
 [E,B,]2 [E,C]2 [E,D]2 [E,E]2 [E,B,]2 E,2 | G,2 F,2 E,2 [B,,F,]4 [B,,F,][B,,A,] | %14
w: ||
 [E,G,]2 [E,^F,]2 [E,G,]2 [E,B,]4 [E,G,][E,G,] | [C,A,]2 [B,,G,]2 [A,,A,]2 [E,G,]4 [E,B,][E,B,] | %16
w: ||
 [B,,B,]2 [B,,B,]2 [B,,B,]2 [B,,F,] [B,,B,]3 [B,,A,]2 | G,4 A,2 [E,G,]4 |] %18
w: ||
V:4
 x2 | (E,,B,,) E,4 x6 | (B,,_D,) x10 | (A,,E,) A,4 A,,4 x2 | E,,B,, D,2 G,2 x6 | %5
 B,,4 (B,,D, F,2) B,,2 x2 | B,,4 (E,,B,, E,2) x4 | x6 B,,4 x2 | E,4 B,,2 x4 || x2 | x12 | x12 | %12
 x10 E,2 | G,2 F,2 E,2 x6 | x12 | x12 | x12 | E,6- x4 |] %18

